X: 26956
T: Miss Catherine McGoldrick's
R: jig
M: 6/8
K: Gmajor
|:DEG B2 G|AGA B3|DEG B2 G|A2 G EGE|
DEG B2 G|AGA B2d|edB AGA|B2G AGE:|
|:Bdd edd|BdB ABc|Bdd edB|GAG GED|
Bdd edd|BdB ABc|ded B2 G|AGA GED:|

